img/portfolio/jupyter-logo.svg

<?xml version="1.0" encoding="UTF-8" standalone="no"?>
<svg width="747px" height="313px" viewBox="0 0 747 313" version="1.1" xmlns="http://www.w3.org/2000/svg" xmlns:xlink="http://www.w3.org/1999/xlink" xmlns:sketch="http://www.bohemiancoding.com/sketch/ns">
    <!-- Generator: Sketch 3.3.3 (12072) - http://www.bohemiancoding.com/sketch -->
    <title>Artboard</title>
    <desc>Created with Sketch.</desc>
    <defs></defs>
    <g id="Page-1" stroke="none" stroke-width="1" fill="none" fill-rule="evenodd" sketch:type="MSPage">
        <g id="Artboard" sketch:type="MSArtboardGroup">
            <g id="Group-Copy-4-+-Group-+-Group-Copy" sketch:type="MSLayerGroup">
                <g id="Group-Copy-4" transform="translate(248.000000, 26.000000)" sketch:type="MSShapeGroup">
                    <path d="M131.257337,205.273607 C88.6676163,205.273607 51.5803902,189.962312 32.272903,167.340381 C46.8840271,207.894536 85.6836315,236.88929 131.257337,236.88929 C176.831042,236.88929 215.631296,207.894536 230.24242,167.340381 C210.934933,189.962312 173.847707,205.273607 131.257337,205.273607" id="Fill-9" fill="#E46E2E"></path>
                    <path d="M131.257337,58.0405045 C173.847707,58.0405045 210.934933,73.3524506 230.24242,95.9737309 C215.631296,55.4195759 176.831042,26.4248216 131.257337,26.4248216 C85.6836315,26.4248216 46.8840271,55.4195759 32.272903,95.9737309 C51.5803902,73.3524506 88.6676163,58.0405045 131.257337,58.0405045" id="Fill-10" fill="#E46E2E"></path>
                    <path d="M51.4565438,259.864602 C42.3248269,260.2556 34.6049531,253.170129 34.2139515,244.0385 C33.8223079,234.906871 40.9084894,227.187072 50.0402064,226.795432 C59.1719233,226.404434 66.8917971,233.489906 67.2827987,242.621534 C67.6744423,251.753163 60.5889028,259.473604 51.4565438,259.864602 Z" id="Fill-11" fill="#767474"></path>
                    <path d="M38.7573991,44.3650959 C33.0501924,44.6094359 28.2248169,40.1810205 27.9804858,34.473607 C27.7361546,28.7655349 32.1644097,23.9406432 37.8716164,23.6963032 C43.5794816,23.4513046 48.4048571,27.8803787 48.6491882,33.5877922 C48.8935194,39.2952057 44.4652644,44.1207559 38.7573991,44.3650959 Z" id="Fill-12" fill="#767474"></path>
                    <path d="M202.981984,32.109949 C194.118914,32.4894339 186.626027,25.6129585 186.246545,16.7498125 C185.867063,7.88741641 192.74423,0.394465656 201.606551,0.0149808114 C210.469622,-0.364504033 217.961759,6.51197134 218.34124,15.3751174 C218.721472,24.2375134 211.844305,31.7304642 202.981984,32.109949 Z" id="Fill-8" fill="#767474"></path>
                    <g id="Group-Copy" transform="translate(0.000000, 100.870704)" fill="#313940">
                        <path d="M10.9103401,44.7489832 C10.9103401,54.2807568 10.1653625,57.402886 8.17775035,59.7033235 C6.43972074,61.5929151 3.54199934,62.4969257 0.230317746,62.7438822 L0.9752953,68.4134054 C4.86606876,68.4134054 10.1653625,67.098549 13.3941013,63.8941009 C16.9538574,60.278807 18.195738,55.2663379 18.195738,47.5425854 L18.195738,11.4704687 L10.9103401,11.4704687 L10.9103401,44.7489832" id="Fill-1"></path>
                        <path d="M65.3050119,40.3943165 C65.3050119,44.5020267 65.3872007,48.118069 65.6360292,51.2401981 L59.1777977,51.2401981 L58.7638375,44.7489832 L58.5987059,44.7489832 C56.6940365,47.9534313 52.4714917,52.1434604 45.3519795,52.1434604 C39.0596336,52.1434604 31.5254072,48.6928042 31.5254072,34.7247933 L31.5254072,11.4704687 L38.8115591,11.4704687 L38.8115591,33.4915074 C38.8115591,41.0506222 41.1294346,46.1461585 47.7527978,46.1461585 C52.6373774,46.1461585 56.0320018,42.7770728 57.3568253,39.5718764 C57.7707855,38.5039765 58.01886,37.1891201 58.01886,35.8742637 L58.01886,11.4704687 L65.3050119,11.4704687 L65.3050119,40.3943165" id="Fill-2"></path>
                        <path d="M79.0493953,24.4528985 C79.0493953,19.3588588 78.8842637,15.2496519 78.718378,11.4704687 L85.2587983,11.4704687 L85.5898157,18.2902106 L85.7557014,18.2902106 C88.7363656,13.4423791 93.4550595,10.5664581 99.9954798,10.5664581 C109.68245,10.5664581 116.967848,18.7010564 116.967848,30.780224 C116.967848,45.0775103 108.191741,52.1434604 98.7535992,52.1434604 C93.4550595,52.1434604 88.8185544,49.8430229 86.4177361,45.899202 L86.2526044,45.899202 L86.2526044,67.5093948 L79.0493953,67.5093948 L79.0493953,24.4528985 L79.0493953,24.4528985 Z M86.2526044,35.052572 C86.2526044,36.1212202 86.4177361,37.1075496 86.5836218,38.0108118 C87.9076912,43.023281 92.2961217,46.4739372 97.5117186,46.4739372 C105.211077,46.4739372 109.68245,40.2296788 109.68245,31.1087511 C109.68245,23.1387904 105.459905,16.3183001 97.7605472,16.3183001 C92.7930248,16.3183001 88.1565197,19.8520235 86.7487534,25.2745902 C86.5006789,26.1786007 86.2526044,27.2465006 86.2526044,28.23283 L86.2526044,35.052572 L86.2526044,35.052572 Z" id="Fill-3"></path>
                        <path d="M129.884311,11.4704687 L138.660418,34.9710015 C139.571281,37.6007143 140.564333,40.7220951 141.227122,43.1055998 L141.392254,43.1055998 C142.137985,40.7220951 142.965906,37.6822848 143.958958,34.8063638 L151.907144,11.4704687 L159.606503,11.4704687 L148.678406,39.8188329 C143.462055,53.4583168 139.902299,60.4434447 134.934776,64.7157927 C131.37502,67.8379218 127.81451,69.0704594 125.993538,69.3989864 L124.171811,63.3193657 C125.993538,62.7438822 128.394356,61.5929151 130.5471,59.7856423 C132.533958,58.2238294 135.017719,55.4302272 136.67356,51.7333628 C137.004577,50.99399 137.252652,50.4185064 137.252652,50.0076606 C137.252652,49.5960664 137.08752,49.0220795 136.755749,48.118069 L121.936878,11.4704687 L129.884311,11.4704687" id="Fill-4"></path>
                        <path d="M178.767054,0.0491034516 L178.767054,11.4704687 L189.199002,11.4704687 L189.199002,16.9761025 L178.767054,16.9761025 L178.767054,38.4216577 C178.767054,43.351808 180.17482,46.1461585 184.231479,46.1461585 C186.135395,46.1461585 187.543161,45.899202 188.454024,45.6529938 L188.785041,51.0755605 C187.377275,51.651044 185.142342,52.0618899 182.327564,52.0618899 C178.932939,52.0618899 176.20035,50.99399 174.461566,49.0220795 C172.392519,46.884783 171.646788,43.351808 171.646788,38.6678658 L171.646788,16.9761025 L165.438139,16.9761025 L165.438139,11.4704687 L171.646788,11.4704687 L171.646788,1.93869506 L178.767054,0.0491034516" id="Fill-5"></path>
                        <path d="M202.611614,32.6698156 C202.776745,42.4477974 209.069845,46.4739372 216.355243,46.4739372 C221.57084,46.4739372 224.716636,45.570675 227.449226,44.4197079 L228.691106,49.5960664 C226.124402,50.7470334 221.736726,52.0618899 215.361437,52.0618899 C203.025574,52.0618899 195.657233,44.008862 195.657233,32.0127616 C195.657233,20.0159129 202.776745,10.5664581 214.451328,10.5664581 C227.532168,10.5664581 231.008982,21.9878233 231.008982,29.3007299 C231.008982,30.780224 230.84385,31.9304428 230.760907,32.6698156 L202.611614,32.6698156 L202.611614,32.6698156 Z M223.971658,27.4934572 C224.054601,22.8918339 222.067743,15.7428166 213.871482,15.7428166 C206.503141,15.7428166 203.273648,22.480988 202.694557,27.4934572 L223.971658,27.4934572 L223.971658,27.4934572 Z" id="Fill-6"></path>
                        <path d="M241.690512,23.8774149 C241.690512,19.1942211 241.607569,15.167333 241.358741,11.4704687 L247.734029,11.4704687 L247.982858,19.27654 L248.313875,19.27654 C250.134848,13.9355438 254.523278,10.5664581 259.407858,10.5664581 C260.235778,10.5664581 260.815624,10.6487769 261.477659,10.8134146 L261.477659,17.6331565 C260.732681,17.4692672 259.98695,17.3869484 258.993898,17.3869484 C253.86049,17.3869484 250.217791,21.2484504 249.224739,26.6710171 C249.058853,27.6573465 248.892967,28.8083136 248.892967,30.0401028 L248.892967,51.2401981 L241.690512,51.2401981 L241.690512,23.8774149" id="Fill-7"></path>
                    </g>
                </g>
            </g>
        </g>
    </g>
</svg>

<?xml version="1.0" encoding="UTF-8" standalone="no"?>
<svg
   xmlns:sketch="http://www.bohemiancoding.com/sketch/ns"
   xmlns:dc="http://purl.org/dc/elements/1.1/"
   xmlns:cc="http://creativecommons.org/ns#"
   xmlns:rdf="http://www.w3.org/1999/02/22-rdf-syntax-ns#"
   xmlns:svg="http://www.w3.org/2000/svg"
   xmlns="http://www.w3.org/2000/svg"
   xmlns:sodipodi="http://sodipodi.sourceforge.net/DTD/sodipodi-0.dtd"
   xmlns:inkscape="http://www.inkscape.org/namespaces/inkscape"
   width="261.24734"
   height="259.88004"
   viewBox="0 0 261.24734 259.88004"
   version="1.1"
   id="svg3384"
   inkscape:version="0.91 r13725"
   sodipodi:docname="jupyter-logo.svg">
  <metadata
     id="metadata3411">
    <rdf:RDF>
      <cc:Work
         rdf:about="">
        <dc:format>image/svg+xml</dc:format>
        <dc:type
           rdf:resource="http://purl.org/dc/dcmitype/StillImage" />
        <dc:title>Artboard</dc:title>
      </cc:Work>
    </rdf:RDF>
  </metadata>
  <sodipodi:namedview
     pagecolor="#ffffff"
     bordercolor="#666666"
     borderopacity="1"
     objecttolerance="10"
     gridtolerance="10"
     guidetolerance="10"
     inkscape:pageopacity="0"
     inkscape:pageshadow="2"
     inkscape:window-width="1284"
     inkscape:window-height="824"
     id="namedview3409"
     showgrid="false"
     fit-margin-top="0"
     fit-margin-left="0"
     fit-margin-right="0"
     fit-margin-bottom="0"
     inkscape:zoom="2.3373494"
     inkscape:cx="125.26968"
     inkscape:cy="129.38004"
     inkscape:window-x="0"
     inkscape:window-y="0"
     inkscape:window-maximized="0"
     inkscape:current-layer="svg3384" />
  <!-- Generator: Sketch 3.3.3 (12072) - http://www.bohemiancoding.com/sketch -->
  <title
     id="title3386">Artboard</title>
  <desc
     id="desc3388">Created with Sketch.</desc>
  <defs
     id="defs3390" />
  <g
     id="Page-1"
     sketch:type="MSPage"
     style="fill:none;fill-rule:evenodd;stroke:none;stroke-width:1"
     transform="translate(-248.23032,-26)">
    <g
       id="Artboard"
       sketch:type="MSArtboardGroup">
      <g
         id="Group-Copy-4-+-Group-+-Group-Copy"
         sketch:type="MSLayerGroup">
        <g
           id="Group-Copy-4"
           transform="translate(248,26)"
           sketch:type="MSShapeGroup">
          <path
             d="m 131.25734,205.27361 c -42.589724,0 -79.67695,-15.3113 -98.984437,-37.93323 14.611124,40.55416 53.410729,69.54891 98.984437,69.54891 45.5737,0 84.37396,-28.99475 98.98508,-69.54891 -19.30749,22.62193 -56.39471,37.93323 -98.98508,37.93323"
             id="Fill-9"
             inkscape:connector-curvature="0"
             style="fill:#e46e2e" />
          <path
             d="m 131.25734,58.040504 c 42.59037,0 79.67759,15.311947 98.98508,37.933227 -14.61112,-40.554155 -53.41138,-69.548909 -98.98508,-69.548909 -45.573708,0 -84.373313,28.994754 -98.984437,69.548909 C 51.58039,73.352451 88.667616,58.040504 131.25734,58.040504"
             id="Fill-10"
             inkscape:connector-curvature="0"
             style="fill:#e46e2e" />
          <path
             d="m 51.456544,259.8646 c -9.131717,0.391 -16.851591,-6.69447 -17.242593,-15.8261 -0.391643,-9.13163 6.694538,-16.85143 15.826255,-17.24307 9.131717,-0.391 16.851591,6.69448 17.242593,15.8261 0.391643,9.13163 -6.693896,16.85207 -15.826255,17.24307 z"
             id="Fill-11"
             inkscape:connector-curvature="0"
             style="fill:#767474" />
          <path
             d="m 38.757399,44.365096 c -5.707207,0.24434 -10.532582,-4.184075 -10.776913,-9.891489 -0.244331,-5.708072 4.183924,-10.532964 9.89113,-10.777304 5.707866,-0.244998 10.533241,4.184076 10.777572,9.891489 0.244331,5.707414 -4.183924,10.532964 -9.891789,10.777304 z"
             id="Fill-12"
             inkscape:connector-curvature="0"
             style="fill:#767474" />
          <path
             d="m 202.98198,32.109949 c -8.86307,0.379485 -16.35595,-6.49699 -16.73544,-15.360137 -0.37948,-8.8623956 6.49769,-16.35534634 15.36001,-16.73483119 8.86307,-0.37948484 16.35521,6.49699049 16.73469,15.36013619 0.38023,8.862396 -6.49694,16.355347 -15.35926,16.734832 z"
             id="Fill-8"
             inkscape:connector-curvature="0"
             style="fill:#767474" />
          <g
             id="Group-Copy"
             transform="translate(0,100.8707)"
             style="fill:#313940">
            <path
               d="m 10.91034,44.748983 c 0,9.531774 -0.744977,12.653903 -2.7325896,14.954341 -1.7380297,1.889591 -4.6357511,2.793602 -7.94743265,3.040558 l 0.74497755,5.669523 c 3.8907735,0 9.1900677,-1.314856 12.4188057,-4.519304 3.559756,-3.615294 4.801637,-8.627763 4.801637,-16.351516 l 0,-36.072116 -7.285398,0 0,33.278514"
               id="Fill-1"
               inkscape:connector-curvature="0" />
            <path
               d="m 65.305012,40.394317 c 0,4.10771 0.08219,7.723752 0.331017,10.845881 l -6.458231,0 -0.413961,-6.491215 -0.165131,0 c -1.904669,3.204448 -6.127214,7.394477 -13.246727,7.394477 -6.292345,0 -13.826572,-3.450656 -13.826572,-17.418667 l 0,-23.254324 7.286152,0 0,22.021038 c 0,7.559115 2.317876,12.654651 8.941239,12.654651 4.884579,0 8.279204,-3.369085 9.604027,-6.574282 0.413961,-1.0679 0.662035,-2.382756 0.662035,-3.697612 l 0,-24.403795 7.286152,0 0,28.923848"
               id="Fill-2"
               inkscape:connector-curvature="0" />
            <path
               d="m 79.049395,24.452898 c 0,-5.094039 -0.165131,-9.203246 -0.331017,-12.982429 l 6.54042,0 0.331018,6.819742 0.165885,0 c 2.980665,-4.847832 7.699359,-7.723753 14.239779,-7.723753 9.68697,0 16.97237,8.134598 16.97237,20.213766 0,14.297286 -8.77611,21.363236 -18.214251,21.363236 -5.298539,0 -9.935045,-2.300437 -12.335863,-6.244258 l -0.165132,0 0,21.610193 -7.203209,0 0,-43.056497 0,0 z m 7.203209,10.599674 c 0,1.068648 0.165132,2.054978 0.331018,2.95824 1.324069,5.012469 5.7125,8.463125 10.928097,8.463125 7.699361,0 12.170731,-6.244258 12.170731,-15.365186 0,-7.969961 -4.22254,-14.790451 -11.921903,-14.790451 -4.967522,0 -9.604027,3.533724 -11.011794,8.95629 -0.248074,0.904011 -0.496149,1.971911 -0.496149,2.95824 l 0,6.819742 0,0 z"
               id="Fill-3"
               inkscape:connector-curvature="0" />
            <path
               d="m 129.88431,11.470469 8.77611,23.500532 c 0.91086,2.629713 1.90391,5.751094 2.5667,8.134599 l 0.16513,0 c 0.74573,-2.383505 1.57366,-5.423315 2.56671,-8.299236 l 7.94818,-23.335895 7.69936,0 -10.92809,28.348364 c -5.21636,13.639484 -8.77611,20.624612 -13.74363,24.89696 -3.55976,3.122129 -7.12027,4.354666 -8.94124,4.683193 l -1.82173,-6.07962 c 1.82173,-0.575484 4.22255,-1.726451 6.37529,-3.533724 1.98686,-1.561813 4.47062,-4.355415 6.12646,-8.052279 0.33102,-0.739373 0.57909,-1.314857 0.57909,-1.725702 0,-0.411595 -0.16513,-0.985582 -0.4969,-1.889592 l -14.81887,-36.6476 7.94743,0"
               id="Fill-4"
               inkscape:connector-curvature="0" />
            <path
               d="m 178.76705,0.04910345 0,11.42136555 10.43195,0 0,5.505633 -10.43195,0 0,21.445556 c 0,4.93015 1.40777,7.7245 5.46443,7.7245 1.90391,0 3.31168,-0.246956 4.22254,-0.493164 l 0.33102,5.422567 c -1.40777,0.575483 -3.6427,0.986329 -6.45748,0.986329 -3.39462,0 -6.12721,-1.0679 -7.86599,-3.039811 -2.06905,-2.137296 -2.81478,-5.670271 -2.81478,-10.354213 l 0,-21.691764 -6.20865,0 0,-5.505633 6.20865,0 0,-9.5317739 7.12026,-1.88959165"
               id="Fill-5"
               inkscape:connector-curvature="0" />
            <path
               d="m 202.61161,32.669816 c 0.16513,9.777981 6.45823,13.804121 13.74363,13.804121 5.2156,0 8.3614,-0.903262 11.09399,-2.054229 l 1.24188,5.176358 c -2.56671,1.150967 -6.95438,2.465824 -13.32967,2.465824 -12.33587,0 -19.70421,-8.053028 -19.70421,-20.049128 0,-11.996849 7.11951,-21.446304 18.7941,-21.446304 13.08084,0 16.55765,11.421365 16.55765,18.734272 0,1.479494 -0.16513,2.629713 -0.24807,3.369086 l -28.1493,0 0,0 z m 21.36005,-5.176359 c 0.0829,-4.601623 -1.90392,-11.75064 -10.10018,-11.75064 -7.36834,0 -10.59783,6.738171 -11.17692,11.75064 l 21.2771,0 0,0 z"
               id="Fill-6"
               inkscape:connector-curvature="0" />
            <path
               d="m 241.69051,23.877415 c 0,-4.683194 -0.0829,-8.710082 -0.33177,-12.406946 l 6.37529,0 0.24883,7.806071 0.33101,0 c 1.82098,-5.340996 6.20941,-8.710082 11.09399,-8.710082 0.82792,0 1.40776,0.08232 2.0698,0.246957 l 0,6.819741 c -0.74498,-0.163889 -1.49071,-0.246208 -2.48376,-0.246208 -5.13341,0 -8.77611,3.861502 -9.76916,9.284069 -0.16589,0.986329 -0.33177,2.137297 -0.33177,3.369086 l 0,21.200095 -7.20246,0 0,-27.362783"
               id="Fill-7"
               inkscape:connector-curvature="0" />
          </g>
        </g>
      </g>
    </g>
  </g>
</svg>
